src/assets/svg/express-logo.svg

<svg width="152" height="88" viewBox="0 0 152 88" fill="none" xmlns="http://www.w3.org/2000/svg">
<path d="M152 85.6341C149.788 86.4689 147.346 86.4671 145.135 85.6289C142.924 84.7907 141.097 83.1742 139.998 81.0842L118.148 50.9353L114.982 46.7204L89.6294 81.1222C88.5969 83.1244 86.869 84.6829 84.7685 85.5064C82.6681 86.3298 80.339 86.3617 78.2167 85.5962L110.884 41.8673L80.4967 2.36592C82.6817 1.58029 85.0712 1.56987 87.263 2.33643C89.4548 3.10299 91.3148 4.59969 92.53 6.57451L115.178 37.0963L137.953 6.7009C138.993 4.73428 140.721 3.21768 142.809 2.43941C144.897 1.66114 147.199 1.67546 149.277 2.47967L137.484 18.0944L121.511 38.8404C121.068 39.2352 120.713 39.7191 120.47 40.2603C120.227 40.8015 120.101 41.3879 120.101 41.981C120.101 42.5741 120.227 43.1605 120.47 43.7017C120.713 44.243 121.068 44.7269 121.511 45.1217L151.937 85.6404L152 85.6341ZM0.0127426 41.3238L2.67274 28.2115C9.9814 2.28378 39.7734 -8.50311 60.268 7.54767C72.2697 16.957 75.2654 30.2779 74.6764 45.2923H7.06807C5.97241 72.1047 25.3651 88.2945 50.1601 80.0226C54.1796 78.579 57.7774 76.1631 60.6313 72.9913C63.4852 69.8196 65.506 65.991 66.5127 61.8486C67.8237 57.64 69.9834 56.9196 73.948 58.1329C73.2874 63.2665 71.4686 68.1838 68.6285 72.5149C65.7884 76.846 62.0009 80.4781 57.551 83.138C50.2007 87.1496 41.7673 88.7396 33.4567 87.6807C25.1461 86.6218 17.3838 82.9681 11.2797 77.2422C5.24426 70.4641 1.59656 61.9023 0.893076 52.8627C0.893076 51.3777 0.386409 49.9874 0.0444093 48.6541C0.0135788 46.2129 -0.00119926 43.7715 7.59764e-05 41.3301L0.0127426 41.3238ZM7.15041 39.5165H68.2924C67.9124 20.0787 55.6194 6.29015 39.2224 6.16377C20.9697 5.911 7.91041 19.3962 7.10607 39.4281L7.15041 39.5165Z" fill="black"/>
</svg>

<svg width="152" height="88" fill="none" xmlns="http://www.w3.org/2000/svg"><path d="M152 85.634a9.704 9.704 0 0 1-6.865-.005 9.68 9.68 0 0 1-5.137-4.545l-21.85-30.149-3.166-4.215-25.353 34.402a9.278 9.278 0 0 1-4.86 4.384c-2.1.824-4.43.856-6.552.09l32.667-43.729L80.497 2.366a10.123 10.123 0 0 1 6.766-.03 10.097 10.097 0 0 1 5.267 4.239l22.648 30.521 22.775-30.395a9.079 9.079 0 0 1 4.856-4.262 9.109 9.109 0 0 1 6.468.04l-11.793 15.615-15.973 20.746a4.215 4.215 0 0 0-1.41 3.141 4.201 4.201 0 0 0 1.41 3.14l30.426 40.52.063-.007zM.013 41.324l2.66-13.112C9.98 2.284 39.773-8.504 60.268 7.547c12.002 9.409 14.997 22.73 14.408 37.744H7.068C5.972 72.105 25.365 88.294 50.16 80.022a25.83 25.83 0 0 0 10.471-7.03 25.75 25.75 0 0 0 5.882-11.143c1.31-4.209 3.47-4.93 7.435-3.716a34.183 34.183 0 0 1-5.32 14.382 34.274 34.274 0 0 1-11.077 10.623 39.798 39.798 0 0 1-24.094 4.543A39.76 39.76 0 0 1 11.28 77.242 41.502 41.502 0 0 1 .893 52.862c0-1.484-.507-2.875-.849-4.208C.014 46.213 0 43.771 0 41.33l.013-.006zm7.137-1.807h61.142C67.912 20.079 55.62 6.29 39.222 6.163 20.97 5.91 7.91 19.396 7.106 39.428l.044.089z" fill="#000"/></svg>
